X:735
T:Archie Neil Chisholm's
R:march
C:Brenda Stubbert
O:20th Century Cape Breton
S:Silver Apple News,1994
A:http://www.capebretonet.com/Music/Stubbert
D:House Sessions, Stubbert Music
B:Brenda Stubbert's Collection of Fiddle Tunes ISBN 0969-1181-4-7
N:Contacts ...
N:Recordings and bookings
N:..... brenda@cranfordpub.com
N:Tune books and related recordings
N:..... Cranford Publications <http://www.cranfordpub.com>
H:Copyrights:published by Stubbert Music (SOCAN)
Z:This abc transcription is for personal use only,
Z:provided this notice remains attached.
Z:Used by permission of the composer and publisher.
Z:Paul Stewart Cranford 
Q:244
L:1/8
M:C|
K:Ador
g|e2 d<B A2 B<G|A2 e2 e2f<g|B2 A<B G2 E<D|E2 G2 G2 g2|!
e2 ddB<g e2 d<B|A4 A3:|!
g|e2 d<e g2 f<g|a2 e2 e2 e<a|g2 dg e2 d<B|d2 G2 G2 g2|!
[1e2 d<e g2 f<g|a2 e2 e2 e<a|g>ed<g e2 d<B|A4 A3:|!
[2e2 ddB<g e2 d<B|A4 A3|]!
